svg/u1f444.svg

<svg viewBox="0 0 128 128" xmlns="http://www.w3.org/2000/svg">
  <g>
    <path d="M81.59,27.47c-9.01-1.39-14.63,2.8-16.29,3.71c-0.56,0.31-0.96,0.49-1.3,0.58 c-0.34-0.09-0.74-0.27-1.3-0.58c-1.65-0.92-7.28-5.1-16.29-3.71C30.35,29.95,11.99,56.14,4.88,67.2c-1.66,2.58-0.92,6.02,1.66,7.69 c3.18,2.06,7.6,5.23,12.12,9.41c9.48,8.64,20.31,18.57,45.34,18.61c25.04-0.04,35.86-9.97,45.34-18.61 c4.52-4.18,8.94-7.35,12.12-9.41c2.57-1.67,3.31-5.11,1.66-7.69C116.01,56.14,97.65,29.95,81.59,27.47z" fill="#EF4D8F"/>
    <path d="M63.9,76.79c-32.66,0-48.11-6.78-48.11-6.78S36.97,45.45,63.9,45.45s48.21,24.45,48.21,24.45 S96.56,76.79,63.9,76.79z" fill="#BDBDBD"/>
    <path d="M63.9,63.95c-24.88,0-30.49-8.68-30.49-8.68c7.83-3.9,20.24-6.53,30.64-6.53 c10.69,0,22.82,2.69,30.73,6.71C94.78,55.46,88.78,63.95,63.9,63.95z" fill="#FFFFFF"/>
    <path d="M112.11,70.01c0,0-15.55,6.89-48.21,6.89s-48.11-6.78-48.11-6.78s6.47-8.45,16.8-15.97 c8.35-6.16,19.3-11.69,31.31-11.69c12.31,0,23.37,5.74,31.83,12C105.74,61.76,112.11,70.01,112.11,70.01z" fill="none"/>
    <path d="M94.78,55.46c-5.52,1.56-16.05,4.22-30.78,4.22c-14.86,0-25.28-2.78-30.59-4.4 c-10.8,6.84-17.62,14.73-17.62,14.73s15.44,8.64,48.11,8.64c32.66,0,48.21-8.75,48.21-8.75S105.41,62.21,94.78,55.46z" fill="#3E2723"/>
    <path d="M46.77,86c-2.71-1.98-1.08-5.43,2.16-4.83c9.92,1.84,20.93,1.92,30.2,0.49c3.27-0.5,4.8,3.05,2,4.9 c0,0-6.91,3.99-17.05,3.99C52.97,90.55,46.77,86,46.77,86z" fill="#FF80AB"/>
  </g>
</svg>

<svg viewBox="0 0 128 128" xmlns="http://www.w3.org/2000/svg">
  <defs/>
  <path d="M81.59,27.47 C72.58,26.08 66.96,30.27 65.3,31.18 C64.74,31.49 64.34,31.67 64,31.76 C63.66,31.67 63.26,31.49 62.7,31.18 C61.05,30.26 55.42,26.08 46.41,27.47 C30.35,29.95 11.99,56.14 4.88,67.2 C3.22,69.78 3.96,73.22 6.54,74.89 C9.72,76.95 14.14,80.12 18.66,84.3 C28.14,92.94 38.97,102.87 64,102.91 C89.04,102.87 99.86,92.94 109.34,84.3 C113.86,80.12 118.28,76.95 121.46,74.89 C124.03,73.22 124.77,69.78 123.12,67.2 C116.01,56.14 97.65,29.95 81.59,27.47 Z" fill="#EF4D8F"/>
  <path d="M63.9,76.79 C31.24,76.79 15.79,70.01 15.79,70.01 C15.79,70.01 36.97,45.45 63.9,45.45 C90.83,45.45 112.11,69.9 112.11,69.9 C112.11,69.9 96.56,76.79 63.9,76.79 Z" fill="#BDBDBD"/>
  <path d="M63.9,63.95 C39.02,63.95 33.41,55.27 33.41,55.27 C41.24,51.37 53.65,48.74 64.05,48.74 C74.74,48.74 86.87,51.43 94.78,55.45 C94.78,55.46 88.78,63.95 63.9,63.95 Z" fill="#FFFFFF"/>
  <path d="M94.78,55.46 C89.26,57.02 78.73,59.68 64,59.68 C49.14,59.68 38.72,56.9 33.41,55.28 C22.61,62.12 15.79,70.01 15.79,70.01 C15.79,70.01 31.23,78.65 63.9,78.65 C96.56,78.65 112.11,69.9 112.11,69.9 C112.11,69.9 105.41,62.21 94.78,55.46 Z" fill="#3E2723"/>
  <path d="M46.77,86 C44.06,84.02 45.69,80.57 48.93,81.17 C58.85,83.01 69.86,83.09 79.13,81.66 C82.4,81.16 83.93,84.71 81.13,86.56 C81.13,86.56 74.22,90.55 64.08,90.55 C52.97,90.55 46.77,86 46.77,86 Z" fill="#FF80AB"/>
</svg>
